Yaru++/actions/16/list-remove-all.svg

<svg height="16" width="16" xmlns="http://www.w3.org/2000/svg">
  <path d="m11.089844.05078125a1.0001 1.0001 0 0 0 -.886719.50390625l-3.2871094 5.5820313-1.6953125-1.046875c-.75664-.3772201-1.2228887-.1457869-1.5117187.4394531l-.0175782.90625 6.0195313 3.5214843.6210935-.2167968c.65533-.4839.439488-1.2809832-.164062-1.5957032l-1.5507815-.9570312 3.3085935-5.6171875a1.0001 1.0001 0 0 0 -.835937-1.51953125zm-8.0390628 7.43945315-1.5292968 2.6523436c-1.05340002 1.8246-.0479219 3.888672 2.1425781 3.888672h5.3691406l-.9492187-.818359c-.22098-.13258-.3088606-.463962-.0878906-.707032l1.0429687-1.541015z" fill="#808080"/>
</svg>

<svg xmlns="http://www.w3.org/2000/svg" width="16" height="16" version="1.1">
 <g transform="translate(-241 -767)">
  <path style="fill:#808080" d="M 11.089844 0.05078125 A 1.0001 1.0001 0 0 0 10.203125 0.5546875 L 6.9160156 6.1367188 L 5.2207031 5.0898438 C 4.4640631 4.7126237 3.9978144 4.9440569 3.7089844 5.5292969 L 3.6914062 6.4355469 L 9.7109375 9.9570312 L 10.332031 9.7402344 C 10.987361 9.2563344 10.771519 8.4592512 10.167969 8.1445312 L 8.6171875 7.1875 L 11.925781 1.5703125 A 1.0001 1.0001 0 0 0 11.089844 0.05078125 z M 3.0507812 7.4902344 L 1.5214844 10.142578 C 0.46808438 11.967178 1.4735625 14.03125 3.6640625 14.03125 L 9.0332031 14.03125 L 8.0839844 13.212891 C 7.8630044 13.080311 7.7751238 12.748929 7.9960938 12.505859 L 9.0390625 10.964844 L 3.0507812 7.4902344 z" transform="translate(241,767)"/>
 </g>
</svg>
